**kern	**silbe	**kern	**silbe	**harmony	**phrase	**leadinstrument	**rhyme	**harte
*ICvox	*	*ICvox	*	*M4/4	*	*	*	*M4/4
*VRlead	*	*VRharmonize	*	*	*	*	*	*
*Hstimme	*	*Nstimme	*	*	*	*	*	*
*C:	*	*C:	*	*C:	*	*	*	*C:
*M4/4	*	*M4/4	*	*	*	*	*	*
*clefF4	*	*clefG2	*	*	*	*	*	*
r;	.	r;	.	1r;	.	r	.	N.C.
=1	=1	=1	=1	=1	=1	=1	=1	=1
*>Letter>A	*>Letter>A	*>Letter>A	*>Letter>A	*>Letter>A	*>Letter>A	*>Letter>A	*>Letter>A	*>Letter>A
*>Label>Intro	*>Label>Intro	*>Label>Intro	*>Label>Intro	*>Label>Intro	*>Label>Intro	*>Label>Intro	*>Label>Intro	*>Label>Intro
1r	.	1r	.	1FMM	newline	r	.	F:maj7
=2	=2	=2	=2	=2	=2	=2	=2	=2
1r	.	1r	.	1FMM	.	r	.	F:maj7
=3	=3	=3	=3	=3	=3	=3	=3	=3
1r	.	1r	.	1CMM	.	r	.	C:maj7
=4	=4	=4	=4	=4	=4	=4	=4	=4
2r	.	1r	.	1Amm	.	r	.	A:min7
4r	.	.	.	.	.	.	.	.
8dq	_	.	.	.	.	.	.	.
8e	I	.	.	.	.	.	.	.
8f	was	.	.	.	.	.	.	.
=5	=5	=5	=5	=5	=5	=5	=5	=5
*>Letter>B	*>Letter>B	*>Letter>B	*>Letter>B	*>Letter>B	*>Letter>B	*>Letter>B	*>Letter>B	*>Letter>B
*>Label>Verse	*>Label>Verse	*>Label>Verse	*>Label>Verse	*>Label>Verse	*>Label>Verse	*>Label>Verse	*>Label>Verse	*>Label>Verse
8e	sit-	1r	.	1Dmm	newline	voice	.	D:min7
16c	-tin'	.	.	.	.	.	.	.
[16c	all	.	.	.	.	.	.	.
16c]	_	.	.	.	.	.	.	.
16A	a-	.	.	.	.	.	.	.
8c	-lone	.	.	.	.	.	A	.
4r	.	.	.	.	.	.	.	.
8e	wat-	.	.	.	.	.	.	.
8f	-chin'	.	.	.	.	.	.	.
=6	=6	=6	=6	=6	=6	=6	=6	=6
8e	peo-	1r	.	1GMm	.	voice	.	G:11
8c	-ple	.	.	.	.	.	.	.
16c	get	.	.	.	.	.	.	.
16A	it	.	.	.	.	.	.	.
8cq	_	.	.	.	.	.	.	.
[8d	on	.	.	.	.	.	A	.
8d]	_	.	.	.	.	.	.	.
8r	.	.	.	.	.	.	.	.
16A	with	.	.	.	.	.	.	.
8.A	each	.	.	.	.	.	.	.
=7	=7	=7	=7	=7	=7	=7	=7	=7
8Gq	_	.	.	.	.	.	.	.
8.A	o-	1r	.	1CMM	.	voice	(B	C:maj7
[16G	-ther	.	.	.	.	.	b)	.
8G]	_	.	.	.	.	.	.	.
8r	.	.	.	.	.	.	.	.
2r	.	.	.	.	.	.	.	.
=8	=8	=8	=8	=8	=8	=8	=8	=8
2r	.	1r	.	1Amm	.	voice	.	A:min7
4r	.	.	.	.	.	.	.	.
8dq	_	.	.	.	.	.	.	.
8e	They	.	.	.	.	.	.	.
8f	were	.	.	.	.	.	.	.
=9	=9	=9	=9	=9	=9	=9	=9	=9
8e	dan-	1r	.	1Dmm	newline	voice	.	D:min7
16c	-cin'	.	.	.	.	.	.	.
[16c	'cross	.	.	.	.	.	.	.
16c]	_	.	.	.	.	.	.	.
16A	the	.	.	.	.	.	.	.
8c	floor	.	.	.	.	.	C	.
4r	.	.	.	.	.	.	.	.
8e	tur-	.	.	.	.	.	.	.
8f	-nin',	.	.	.	.	.	.	.
=10	=10	=10	=10	=10	=10	=10	=10	=10
8dq	_	.	.	.	.	.	.	.
8e	mo-	1r	.	1GMm	.	voice	.	G:11
8c	-vin'	.	.	.	.	.	.	.
16c	back	.	.	.	.	.	.	.
8A	and	.	.	.	.	.	.	.
16cQ	_	.	.	.	.	.	.	.
[16d	forth	.	.	.	.	.	C	.
8d]	_	.	.	.	.	.	.	.
8r	.	.	.	.	.	.	.	.
8A	they	.	.	.	.	.	.	.
8A	were	.	.	.	.	.	.	.
=11	=11	=11	=11	=11	=11	=11	=11	=11
8Gq	_	.	.	.	.	.	.	.
8.A	lo-	1r	.	1CMM	.	voice	(B	C:maj7
[16G	-vers	.	.	.	.	.	b)	.
8G]	_	.	.	.	.	.	.	.
8r	.	.	.	.	.	.	.	.
2r	.	.	.	.	.	.	.	.
=12	=12	=12	=12	=12	=12	=12	=12	=12
*	*	*clefF4	*	*	*	*	*	*
2r	.	2r	.	2Gmm	.	voice	.	G:min7
4c	One	4E	One	2CMm	.	voice	.	C:7
8cq	_	.	.	.	.	.	.	.
4d	more	4G	more	.	.	.	.	.
=13	=13	=13	=13	=13	=13	=13	=13	=13
*>Letter>C	*>Letter>C	*>Letter>C	*>Letter>C	*>Letter>C	*>Letter>C	*>Letter>C	*>Letter>C	*>Letter>C
*>Label>Prechorus	*>Label>Prechorus	*>Label>Prechorus	*>Label>Prechorus	*>Label>Prechorus	*>Label>Prechorus	*>Label>Prechorus	*>Label>Prechorus	*>Label>Prechorus
4e	lone-	4c	lone-	1FMM	newline	voice	.	F:maj7
8f	-ly	8d	-ly	.	.	.	.	.
8e	night	8c	night	.	.	.	.	.
4r	.	4r	.	.	.	.	.	.
8c	for	8G	for	.	.	.	.	.
16c	me	8G	me	.	.	.	D	.
[16G	_	.	.	.	.	.	.	.
=14	=14	=14	=14	=14	=14	=14	=14	=14
4G]	_	2r	.	1Emm	.	voice	.	E:min7
4r	.	.	.	.	.	.	.	.
8r	.	8r	.	.	.	.	.	.
8c	I	8G	I	.	.	.	.	.
8d	looked	8A	looked	.	.	.	.	.
8dq	_	8Aq	_	.	.	.	.	.
8e	up	8c	up	.	.	.	.	.
=15	=15	=15	=15	=15	=15	=15	=15	=15
4r	.	4r	.	1FMM	.	voice	.	F:maj7
8r	.	8r	.	.	.	.	.	.
8f	what	8c	what	.	.	.	.	.
8e	did	8A	did	.	.	.	.	.
4a	I	4c	I	.	.	.	.	.
8gq	_	8cq	_	.	.	.	.	.
8a	see	8d	see?	.	.	.	D	.
=16	=16	=16	=16	=16	=16	=16	=16	=16
8aq	_	8cq	_	.	.	.	.	.
8a	_	2d	_	1GM	.	voice	.	G:sus4(b7)
[4.g	_	.	.	.	.	.	.	.
8g]	_	2r	.	.	.	.	.	.
8a	_	.	.	.	.	.	.	.
4r	.	.	.	.	.	.	.	.
=17	=17	=17	=17	=17	=17	=17	=17	=17
*>Letter>D	*>Letter>D	*>Letter>D	*>Letter>D	*>Letter>D	*>Letter>D	*>Letter>D	*>Letter>D	*>Letter>D
*>Label>Chorus	*>Label>Chorus	*>Label>Chorus	*>Label>Chorus	*>Label>Chorus	*>Label>Chorus	*>Label>Chorus	*>Label>Chorus	*>Label>Chorus
8e 8g	Se-	1r	.	1FMM	newline	voice	.	F:maj7
16e 16g	-xy	.	.	.	.	.	.	.
[16d [16f	eyes	.	.	.	.	.	.	.
8d] 8f]	_	.	.	.	.	.	.	.
8r	.	.	.	.	.	.	.	.
4r	.	.	.	.	.	.	.	.
8r	.	.	.	.	.	.	.	.
16c	mo-	.	.	.	.	.	.	.
16d	-vin'	.	.	.	.	.	.	.
=18	=18	=18	=18	=18	=18	=18	=18	=18
8e	'cross	1r	.	1FMM	.	voice	.	F:maj7
16e	the	.	.	.	.	.	.	.
[16d	floor,	.	.	.	.	.	C	.
8d]	_	.	.	.	.	.	.	.
16c	got	.	.	.	.	.	.	.
16d	me	.	.	.	.	.	.	.
8e	wan-	.	.	.	.	.	.	.
16e	-tin	.	.	.	.	.	.	.
32c	more	.	.	.	.	.	C	.
[32A	_	.	.	.	.	.	.	.
8A]	_	.	.	.	.	.	.	.
8r	.	.	.	.	.	.	.	.
=19	=19	=19	=19	=19	=19	=19	=19	=19
8B 8e	se-	2r	.	1CMM	.	voice	.	C:maj7
16B 16e	-xy	.	.	.	.	.	.	.
[16B [16e	eyes	.	.	.	.	.	.	.
24B] 24e]	_	.	.	.	.	.	.	.
12A 12d	_	.	.	.	.	.	.	.
8G 8B	_	.	.	.	.	.	.	.
2r	.	8e	Se-	.	.	.	.	.
.	.	16e	-xy	.	.	.	.	.
.	.	[16e	eyes	.	.	.	.	.
.	.	8e]	_	.	.	.	.	.
.	.	8r	.	.	.	.	.	.
=20	=20	=20	=20	=20	=20	=20	=20	=20
1r	.	8e	se-	1Amm	.	voice	.	A:min7
.	.	16e	-xy	.	.	.	.	.
.	.	[16e	eyes	.	.	.	.	.
.	.	4e_	_	.	.	.	.	.
.	.	8e]	_	.	.	.	.	.
.	.	8r	.	.	.	.	.	.
.	.	4r	.	.	.	.	.	.
=21	=21	=21	=21	=21	=21	=21	=21	=21
*	*	*clefG2	*	*	*	*	*	*
8e 8g	Se-	2r	.	1FMM	newline	voice	.	F:maj7
16e 16g	-xy	.	.	.	.	.	.	.
[16d [16f	eyes	.	.	.	.	.	.	.
8d] 8f]	_	.	.	.	.	.	.	.
8r	.	.	.	.	.	.	.	.
4r	.	8e	Se-	.	.	.	.	.
.	.	16e	-xy	.	.	.	.	.
.	.	[16e	eyes	.	.	.	.	.
8r	.	4e_ [4g	_	.	.	.	.	.
16c	Get-	.	.	.	.	.	.	.
16d	-tin'	.	.	.	.	.	.	.
=22	=22	=22	=22	=22	=22	=22	=22	=22
8e	down	16e_ [16a	_	1FMM	.	voice	.	F:maj7
.	.	8.e_ 8.a_ [8.cc	_	.	.	.	.	.
16e	with	.	.	.	.	.	.	.
16e	you	.	.	.	.	.	.	.
16r	.	4e_ 4a_ 4cc_	_	.	.	.	.	.
16A	I	.	.	.	.	.	.	.
16c	wan-	.	.	.	.	.	.	.
16d	-na	.	.	.	.	.	.	.
32e	move	4e_ 4a_ 4cc_	_	.	.	.	.	.
16.A	_	.	.	.	.	.	.	.
16A	with	.	.	.	.	.	.	.
16A	y-	.	.	.	.	.	.	.
8A	-you	8e] 8a] 8cc]	_	.	.	.	.	.
.	.	16d#Q 16g]Q 16bQ	_	.	.	.	.	.
8r	.	[8e 8a 8cc	_	.	.	.	.	.
=23	=23	=23	=23	=23	=23	=23	=23	=23
8B 8e	se-	1e] 1g 1b	_	1CMM	.	voice	.	C:maj7
16B 16e	-xy	.	.	.	.	.	.	.
[16B [16e	eyes	.	.	.	.	.	.	.
24B] 24e]	_	.	.	.	.	.	.	.
12A 12d	_	.	.	.	.	.	.	.
8G 8B	_	.	.	.	.	.	.	.
2r	.	.	.	.	.	.	.	.
=24	=24	=24	=24	=24	=24	=24	=24	=24
1r	.	1r	.	4.Emm	.	voice	.	E:min9
.	.	.	.	4Am	.	voice	.	A:sus4(b7)
.	.	.	.	4.AMm	.	voice	.	A:7
=25	=25	=25	=25	=25	=25	=25	=25	=25
*>Letter>E	*>Letter>E	*>Letter>E	*>Letter>E	*>Letter>E	*>Letter>E	*>Letter>E	*>Letter>E	*>Letter>E
*>Label>Interlude	*>Label>Interlude	*>Label>Interlude	*>Label>Interlude	*>Label>Interlude	*>Label>Interlude	*>Label>Interlude	*>Label>Interlude	*>Label>Interlude
1r	.	1r	.	1FMM	newline	flute	.	F:maj7
=26	=26	=26	=26	=26	=26	=26	=26	=26
1r	.	1r	.	1Emm	.	flute	.	E:min7
=27	=27	=27	=27	=27	=27	=27	=27	=27
1r	.	1r	.	1FMM	.	flute	.	F:maj7
=28	=28	=28	=28	=28	=28	=28	=28	=28
2r	.	1r	.	1GM	.	flute	.	G:sus4(b7)
4r	.	.	.	.	.	.	.	.
8dq	_	.	.	.	.	.	.	.
8e	I	.	.	.	.	.	.	.
8f	got	.	.	.	.	.	.	.
=29	=29	=29	=29	=29	=29	=29	=29	=29
*>Letter>B	*>Letter>B	*>Letter>B	*>Letter>B	*>Letter>B	*>Letter>B	*>Letter>B	*>Letter>B	*>Letter>B
*>Label>Verse	*>Label>Verse	*>Label>Verse	*>Label>Verse	*>Label>Verse	*>Label>Verse	*>Label>Verse	*>Label>Verse	*>Label>Verse
8e	up	1r	.	1Dmm	newline	voice	.	D:min7
16c	and	.	.	.	.	.	.	.
[16c	took	.	.	.	.	.	.	.
16c]	_	.	.	.	.	.	.	.
8A	your	.	.	.	.	.	.	.
16c	hand	.	.	.	.	.	E	.
4r	.	.	.	.	.	.	.	.
8e	and	.	.	.	.	.	.	.
8f	we	.	.	.	.	.	.	.
=30	=30	=30	=30	=30	=30	=30	=30	=30
8d#q	_	.	.	.	.	.	.	.
8e	both	1r	.	1GMm	.	voice	.	G:11
16c	be-	.	.	.	.	.	.	.
[16c	-gan	.	.	.	.	.	E	.
16c]	_	.	.	.	.	.	.	.
16A	to	.	.	.	.	.	.	.
8cq	_	.	.	.	.	.	.	.
[8d	dance	.	.	.	.	.	E	.
8d]	_	.	.	.	.	.	.	.
8r	.	.	.	.	.	.	.	.
8r	.	.	.	.	.	.	.	.
16A	to	.	.	.	.	.	.	.
16A	the	.	.	.	.	.	.	.
=31	=31	=31	=31	=31	=31	=31	=31	=31
8Gq	_	.	.	.	.	.	.	.
8.A	mu-	1r	.	1CMM	.	voice	(G	C:maj7
[16G	-sic	.	.	.	.	.	g)	.
8G]	_	.	.	.	.	.	.	.
8r	.	.	.	.	.	.	.	.
2r	.	.	.	.	.	.	.	.
=32	=32	=32	=32	=32	=32	=32	=32	=32
2r	.	1r	.	1Amm	.	voice	.	A:min7
8r	.	.	.	.	.	.	.	.
8d#q	_	.	.	.	.	.	.	.
4e	Ooh,	.	.	.	.	.	.	.
8dq	_	.	.	.	.	.	.	.
8f	your	.	.	.	.	.	.	.
=33	=33	=33	=33	=33	=33	=33	=33	=33
8e	ma-	1r	.	1Dmm	newline	voice	.	D:min7
8c	-gic	.	.	.	.	.	.	.
8c	cast	.	.	.	.	.	.	.
16A	a	.	.	.	.	.	.	.
16c	spell	.	.	.	.	.	F	.
4r	.	.	.	.	.	.	.	.
16r	.	.	.	.	.	.	.	.
16~G	it	.	.	.	.	.	.	.
16e	did-	.	.	.	.	.	.	.
16f	-n't	.	.	.	.	.	.	.
=34	=34	=34	=34	=34	=34	=34	=34	=34
8dq	_	.	.	.	.	.	.	.
8e	take	1r	.	1GMm	.	voice	.	G:11
8c	long	.	.	.	.	.	.	.
16c	'till	.	.	.	.	.	.	.
8A	we	.	.	.	.	.	.	.
16cQ	_	.	.	.	.	.	.	.
[16d	fell	.	.	.	.	.	F	.
8d]	_	.	.	.	.	.	.	.
8r	.	.	.	.	.	.	.	.
8A	and	.	.	.	.	.	.	.
8Gq	_	.	.	.	.	.	.	.
8A	we	.	.	.	.	.	.	.
=35	=35	=35	=35	=35	=35	=35	=35	=35
8Gq	_	.	.	.	.	.	.	.
8.A	knew	1r	.	1CMM	.	voice	(G	C:maj7
[16G	it	.	.	.	.	.	g)	.
8G]	_	.	.	.	.	.	.	.
8r	.	.	.	.	.	.	.	.
2r	.	.	.	.	.	.	.	.
=36	=36	=36	=36	=36	=36	=36	=36	=36
2r	.	1r	.	2Gmm	.	voice	.	G:min7
8Bq	_	.	.	.	.	.	.	.
4c	No	.	.	2CMm	.	voice	.	C:7
8cq	_	.	.	.	.	.	.	.
4d	more	.	.	.	.	.	.	.
=37	=37	=37	=37	=37	=37	=37	=37	=37
*>Letter>C	*>Letter>C	*>Letter>C	*>Letter>C	*>Letter>C	*>Letter>C	*>Letter>C	*>Letter>C	*>Letter>C
*>Label>Prechorus	*>Label>Prechorus	*>Label>Prechorus	*>Label>Prechorus	*>Label>Prechorus	*>Label>Prechorus	*>Label>Prechorus	*>Label>Prechorus	*>Label>Prechorus
4e	lone-	4c	lone-	1FMM	newline	voice	.	F:maj7
8f	-ly	8d	-ly	.	.	.	.	.
8e	nights	8c	nights	.	.	.	.	.
4r	.	4r	.	.	.	.	.	.
8c	for	8G	for	.	.	.	.	.
16c	me	8G	me	.	.	.	D	.
[16G	_	.	.	.	.	.	.	.
=38	=38	=38	=38	=38	=38	=38	=38	=38
4G]	_	1r	.	1Emm	.	voice	.	E:min7
4r	.	.	.	.	.	.	.	.
8r	.	.	.	.	.	.	.	.
8G 8c	This	.	.	.	.	.	.	.
8A 8d	is	.	.	.	.	.	.	.
8Aq 8dq	_	.	.	.	.	.	.	.
[8c [8e	how	.	.	.	.	.	.	.
=39	=39	=39	=39	=39	=39	=39	=39	=39
*clefG2	*	*clefG2	*	*	*	*	*	*
8c] 8e]	_	1e 1a 1cc	Ha,	1FMM	.	voice	.	F:maj7
8r	.	.	.	.	.	.	.	.
8r	.	.	.	.	.	.	.	.
8c 8f	it's	.	.	.	.	.	.	.
4A 4e	gon-	.	.	.	.	.	.	.
8d 8a	-na	.	.	.	.	.	.	.
8gq	_	.	.	.	.	.	.	.
8d 8a	be	.	.	.	.	.	D	.
=40	=40	=40	=40	=40	=40	=40	=40	=40
2d [2g	_	1f 1a 1cc	_	1GM	.	voice	.	G:sus4(b7)
8g]	_	.	.	.	.	.	.	.
8a	_	.	.	.	.	.	.	.
4r	.	.	.	.	.	.	.	.
=41	=41	=41	=41	=41	=41	=41	=41	=41
*>Letter>D	*>Letter>D	*>Letter>D	*>Letter>D	*>Letter>D	*>Letter>D	*>Letter>D	*>Letter>D	*>Letter>D
*>Label>Chorus	*>Label>Chorus	*>Label>Chorus	*>Label>Chorus	*>Label>Chorus	*>Label>Chorus	*>Label>Chorus	*>Label>Chorus	*>Label>Chorus
8e 8g	Se-	2.a 2.cc 2.ee	Ooh	1FMM	newline	voice	.	F:maj7
16e 16g	-xy	.	.	.	.	.	.	.
[16d [16f	eyes	.	.	.	.	.	.	.
8d] 8f]	_	.	.	.	.	.	.	.
8r	.	.	.	.	.	.	.	.
4r	.	.	.	.	.	.	.	.
8r	.	4r	.	.	.	.	.	.
16c	mo-	.	.	.	.	.	.	.
16d	-vin'	.	.	.	.	.	.	.
=42	=42	=42	=42	=42	=42	=42	=42	=42
8e	'cross	1r	.	1FMM	.	voice	.	F:maj7
16e	the	.	.	.	.	.	.	.
[16d	floor,	.	.	.	.	.	C	.
8d]	_	.	.	.	.	.	.	.
16c	got	.	.	.	.	.	.	.
16d	me	.	.	.	.	.	.	.
8e	wan-	.	.	.	.	.	.	.
16e	-tin	.	.	.	.	.	.	.
32c	more	.	.	.	.	.	C	.
[32A	_	.	.	.	.	.	.	.
8A]	_	.	.	.	.	.	.	.
8r	.	.	.	.	.	.	.	.
=43	=43	=43	=43	=43	=43	=43	=43	=43
8B 8e	se-	2r	.	1CMM	.	voice	.	C:maj7
16B 16e	-xy	.	.	.	.	.	.	.
[16B [16d	eyes	.	.	.	.	.	.	.
24B] 24d]	_	.	.	.	.	.	.	.
12A 12c	_	.	.	.	.	.	.	.
8G 8B	_	.	.	.	.	.	.	.
2r	.	8e 8~a 8~dd	Se-	.	.	.	.	.
.	.	16e	-xy	.	.	.	.	.
.	.	[16e	eyes	.	.	.	.	.
.	.	8e]	_	.	.	.	.	.
.	.	8r	.	.	.	.	.	.
=44	=44	=44	=44	=44	=44	=44	=44	=44
1r	.	8e	se-	1Amm	.	voice	.	A:min7
.	.	16e	-xy	.	.	.	.	.
.	.	[16e	eyes	.	.	.	.	.
.	.	4e_	_	.	.	.	.	.
.	.	8e]	_	.	.	.	.	.
.	.	8r	.	.	.	.	.	.
.	.	4r	.	.	.	.	.	.
=45	=45	=45	=45	=45	=45	=45	=45	=45
8e 8g	Se-	2r	.	1FMM	newline	voice	.	F:maj7
16e 16g	-xy	.	.	.	.	.	.	.
[16d [16f	eyes	.	.	.	.	.	.	.
8d] 8f]	_	.	.	.	.	.	.	.
8r	.	.	.	.	.	.	.	.
4r	.	8e	Se-	.	.	.	.	.
.	.	16e	-xy	.	.	.	.	.
.	.	[16e	eyes	.	.	.	.	.
8r	.	4e_ [4g	_	.	.	.	.	.
16c	Get-	.	.	.	.	.	.	.
16d	-tin'	.	.	.	.	.	.	.
=46	=46	=46	=46	=46	=46	=46	=46	=46
8e	down	16e_ [16a	_	1FMM	.	voice	.	F:maj7
.	.	8.e_ 8.a_ [8.cc	_	.	.	.	.	.
16e	with	.	.	.	.	.	.	.
16e	you	.	.	.	.	.	.	.
16r	.	4e_ 4a_ 4cc_	_	.	.	.	.	.
16A	I	.	.	.	.	.	.	.
16c	wan-	.	.	.	.	.	.	.
16d	-na	.	.	.	.	.	.	.
32e	move	4e_ 4a_ 4cc_	_	.	.	.	.	.
16.A	_	.	.	.	.	.	.	.
16A	with	.	.	.	.	.	.	.
16A	y-	.	.	.	.	.	.	.
8A	-you	8e] 8a] 8cc]	_	.	.	.	.	.
.	.	16d#Q 16g]Q 16bQ	_	.	.	.	.	.
8r	.	[16e 16a 16cc	_	.	.	.	.	.
.	.	16r	.	.	.	.	.	.
=47	=47	=47	=47	=47	=47	=47	=47	=47
8B 8e	se-	1e] 1g 1b	_	1CMM	.	voice	.	C:maj7
16B 16e	-xy	.	.	.	.	.	.	.
[16B [16e	eyes	.	.	.	.	.	.	.
24B] 24e]	_	.	.	.	.	.	.	.
12A 12d	_	.	.	.	.	.	.	.
8G 8B	_	.	.	.	.	.	.	.
2r	.	.	.	.	.	.	.	.
=48	=48	=48	=48	=48	=48	=48	=48	=48
2r	.	1r	.	4.Emm	.	voice	.	E:min9
.	.	.	.	4Am	.	voice	.	A:sus4(b7)
8r	.	.	.	.	.	.	.	.
16f	(Grunt)	.	.	4.AMm	.	voice	.	A:7
16c	_	.	.	.	.	.	.	.
4r	.	.	.	.	.	.	.	.
=49	=49	=49	=49	=49	=49	=49	=49	=49
*>Letter>B	*>Letter>B	*>Letter>B	*>Letter>B	*>Letter>B	*>Letter>B	*>Letter>B	*>Letter>B	*>Letter>B
*>Label>Solo	*>Label>Solo	*>Label>Solo	*>Label>Solo	*>Label>Solo	*>Label>Solo	*>Label>Solo	*>Label>Solo	*>Label>Solo
1r	.	1r	.	1Dmm	newline	guitar	.	D:min7
=50	=50	=50	=50	=50	=50	=50	=50	=50
1r	.	1r	.	1GMm	.	guitar	.	G:11
=51	=51	=51	=51	=51	=51	=51	=51	=51
1r	.	1r	.	1CMM	.	guitar	.	C:maj7
=52	=52	=52	=52	=52	=52	=52	=52	=52
1r	.	1r	.	1Amm	.	guitar	.	A:min7
=53	=53	=53	=53	=53	=53	=53	=53	=53
1r	.	1r	.	1Dmm	newline	guitar	.	D:min7
=54	=54	=54	=54	=54	=54	=54	=54	=54
1r	.	1r	.	1GMm	.	guitar	.	G:11
=55	=55	=55	=55	=55	=55	=55	=55	=55
1r	.	1r	.	1CMM	.	guitar	.	C:maj7
=56	=56	=56	=56	=56	=56	=56	=56	=56
2r	.	1r	.	2Gmm	.	guitar	.	G:min7
8Bq	_	.	.	.	.	.	.	.
4c	No	.	.	2CMm	.	guitar	.	C:7
8cq	_	.	.	.	.	.	.	.
4d	more	.	.	.	.	.	.	.
=57	=57	=57	=57	=57	=57	=57	=57	=57
*>Letter>C	*>Letter>C	*>Letter>C	*>Letter>C	*>Letter>C	*>Letter>C	*>Letter>C	*>Letter>C	*>Letter>C
*>Label>Prechorus	*>Label>Prechorus	*>Label>Prechorus	*>Label>Prechorus	*>Label>Prechorus	*>Label>Prechorus	*>Label>Prechorus	*>Label>Prechorus	*>Label>Prechorus
4e	lone-	4c	lone-	1FMM	newline	voice	.	F:maj7
8f	-ly	8d	-ly	.	.	.	.	.
8e	nights	8c	nights	.	.	.	.	.
4r	.	4r	.	.	.	.	.	.
8c	for	8G	for	.	.	.	.	.
16c	me	8G	me	.	.	.	D	.
[16G	_	.	.	.	.	.	.	.
=58	=58	=58	=58	=58	=58	=58	=58	=58
4G]	_	1r	.	1Emm	.	voice	.	E:min7
4r	.	.	.	.	.	.	.	.
8r	.	.	.	.	.	.	.	.
8G 8c	This	.	.	.	.	.	.	.
8A 8d	is	.	.	.	.	.	.	.
8Aq 8dq	_	.	.	.	.	.	.	.
[8c [8e	how	.	.	.	.	.	.	.
=59	=59	=59	=59	=59	=59	=59	=59	=59
8c] 8e]	_	1e 1a 1cc	Ha	1FMM	.	voice	.	F:maj7
8r	.	.	.	.	.	.	.	.
8r	.	.	.	.	.	.	.	.
*clefG2	*	*	*	*	*	*	*	*
8c 8f	it's	.	.	.	.	.	.	.
4A 4e	gon-	.	.	.	.	.	.	.
8d 8a	-na	.	.	.	.	.	.	.
8gq	_	.	.	.	.	.	.	.
8d 8a	be	.	.	.	.	.	D	.
=60	=60	=60	=60	=60	=60	=60	=60	=60
2d [2g	_	1f 1a 1cc	_	1GM	.	voice	.	G:sus4(b7)
8g]	_	.	.	.	.	.	.	.
8a	_	.	.	.	.	.	.	.
4r	.	.	.	.	.	.	.	.
=61	=61	=61	=61	=61	=61	=61	=61	=61
*>Letter>D	*>Letter>D	*>Letter>D	*>Letter>D	*>Letter>D	*>Letter>D	*>Letter>D	*>Letter>D	*>Letter>D
*>Label>Chorus	*>Label>Chorus	*>Label>Chorus	*>Label>Chorus	*>Label>Chorus	*>Label>Chorus	*>Label>Chorus	*>Label>Chorus	*>Label>Chorus
8e 8g	Se-	2r	.	1FMM	newline	voice	.	F:maj7
16e 16g	-xy	.	.	.	.	.	.	.
[16d [16f	eyes	.	.	.	.	.	.	.
8d] 8f]	_	.	.	.	.	.	.	.
8r	.	.	.	.	.	.	.	.
4r	.	16r	.	.	.	.	.	.
.	.	[8.e	(Vocalizing)	.	.	.	.	.
8r	.	4e]	_	.	.	.	.	.
16c	mo-	.	.	.	.	.	.	.
16d	-vin'	.	.	.	.	.	.	.
=62	=62	=62	=62	=62	=62	=62	=62	=62
8e	'cross	4d	_	1FMM	.	voice	.	F:maj7
16e	the	.	.	.	.	.	.	.
[16d	floor,	.	.	.	.	.	C	.
8d]	_	8~A	_	.	.	.	.	.
16c	got	8r	.	.	.	.	.	.
16d	me	.	.	.	.	.	.	.
8e	wan-	2r	.	.	.	.	.	.
16e	-tin	.	.	.	.	.	.	.
32c	more	.	.	.	.	.	C	.
[32A	_	.	.	.	.	.	.	.
8A]	_	.	.	.	.	.	.	.
8r	.	.	.	.	.	.	.	.
=63	=63	=63	=63	=63	=63	=63	=63	=63
8B 8e	se-	1r	.	1CMM	.	voice	.	C:maj7
16B 16e	-xy	.	.	.	.	.	.	.
[16B [16d	eyes	.	.	.	.	.	.	.
24B] 24d]	_	.	.	.	.	.	.	.
12A 12c	_	.	.	.	.	.	.	.
8G 8B	_	.	.	.	.	.	.	.
2r	.	.	.	.	.	.	.	.
=64	=64	=64	=64	=64	=64	=64	=64	=64
1r	.	4r	.	1Amm	.	voice	.	A:min7
.	.	4B	So	.	.	.	.	.
.	.	4c	se-	.	.	.	.	.
.	.	4e	-xy	.	.	.	.	.
=65	=65	=65	=65	=65	=65	=65	=65	=65
8e 8g	Se-	2r	.	1FMM	newline	voice	.	F:maj7
16e 16g	-xy	.	.	.	.	.	.	.
[16d [16f	eyes	.	.	.	.	.	.	.
8d] 8f]	_	.	.	.	.	.	.	.
8r	.	.	.	.	.	.	.	.
4r	.	8e	Se-	.	.	.	.	.
.	.	16e	-xy	.	.	.	.	.
.	.	[16e	eyes!	.	.	.	.	.
8r	.	4e_ [4g	_	.	.	.	.	.
16c	Get-	.	.	.	.	.	.	.
16d	-tin'	.	.	.	.	.	.	.
=66	=66	=66	=66	=66	=66	=66	=66	=66
8e	down	16e_ [16a	_	1FMM	.	voice	.	F:maj7
.	.	8.e_ 8.a_ [8.cc	_	.	.	.	.	.
16e	with	.	.	.	.	.	.	.
16e	you	.	.	.	.	.	.	.
16r	.	4e_ 4a_ 4cc_	_	.	.	.	.	.
16A	I	.	.	.	.	.	.	.
16c	wan-	.	.	.	.	.	.	.
16d	-na	.	.	.	.	.	.	.
32e	move	4e_ 4a_ 4cc_	_	.	.	.	.	.
16.A	_	.	.	.	.	.	.	.
16A	with	.	.	.	.	.	.	.
16A	y-	.	.	.	.	.	.	.
8A	-you	8e] 8a] 8cc]	_	.	.	.	.	.
.	.	16d#Q 16g]Q 16bQ	_	.	.	.	.	.
8r	.	[16e 16a 16cc	_	.	.	.	.	.
.	.	16r	.	.	.	.	.	.
=67	=67	=67	=67	=67	=67	=67	=67	=67
8B 8e	se-	1e] 1g 1b	_	1CMM	.	voice	.	C:maj7
16B 16e	-xy	.	.	.	.	.	.	.
[16B [16e	eyes	.	.	.	.	.	.	.
24B] 24e]	_	.	.	.	.	.	.	.
12A 12d	_	.	.	.	.	.	.	.
8G 8B	_	.	.	.	.	.	.	.
2r	.	.	.	.	.	.	.	.
=68	=68	=68	=68	=68	=68	=68	=68	=68
2r	.	4r	.	4.Emm	.	voice	.	E:min9
.	.	8r	.	.	.	.	.	.
.	.	8e	Se	4Am	.	voice	.	A:sus4(b7)
8r	.	8r	.	.	.	.	.	.
4.e	Ooh,	4.e	xy,	4.AMm	.	voice	.	A:7
=69	=69	=69	=69	=69	=69	=69	=69	=69
*>Label>>Fadeout	*>Label>>Fadeout	*>Label>>Fadeout	*>Label>>Fadeout	*>Label>>Fadeout	*>Label>>Fadeout	*>Label>>Fadeout	*>Label>>Fadeout	*>Label>>Fadeout
8e 8g	Se-	2.a 2.cc 2.ee	ah	1FMM	newline	voice	.	F:maj7
16e 16g	-xy	.	.	.	.	.	.	.
[16d [16f	eyes	.	.	.	.	.	.	.
8d] 8f]	_	.	.	.	.	.	.	.
8r	.	.	.	.	.	.	.	.
4r	.	.	.	.	.	.	.	.
8r	.	4r	.	.	.	.	.	.
16c	Get-	.	.	.	.	.	.	.
16d	-tin'	.	.	.	.	.	.	.
=70	=70	=70	=70	=70	=70	=70	=70	=70
8e	down	1r	.	1FMM	.	voice	.	F:maj7
16e	with	.	.	.	.	.	.	.
16e	you	.	.	.	.	.	.	.
16r	.	.	.	.	.	.	.	.
16A	I	.	.	.	.	.	.	.
16c	wan-	.	.	.	.	.	.	.
16d	-na	.	.	.	.	.	.	.
32e	move	.	.	.	.	.	.	.
16.A	_	.	.	.	.	.	.	.
16A	with	.	.	.	.	.	.	.
16A	y-	.	.	.	.	.	.	.
8A	-you	.	.	.	.	.	.	.
8r	.	.	.	.	.	.	.	.
=71	=71	=71	=71	=71	=71	=71	=71	=71
8B 8e	se-	2r	.	1CMM	.	voice	.	C:maj7
16B 16e	-xy	.	.	.	.	.	.	.
[16B [16e	eyes	.	.	.	.	.	.	.
24B] 24e]	_	.	.	.	.	.	.	.
12A 12d	_	.	.	.	.	.	.	.
8G 8B	_	.	.	.	.	.	.	.
2r	.	8e	Se-	.	.	.	.	.
.	.	16e	-xy	.	.	.	.	.
.	.	[16e	eyes	.	.	.	.	.
.	.	4e_	_	.	.	.	.	.
=72	=72	=72	=72	=72	=72	=72	=72	=72
1r	.	8e]	_	1Amm	.	voice	.	A:min7
.	.	8r	.	.	.	.	.	.
.	.	4r	.	.	.	.	.	.
.	.	2r	.	.	.	.	.	.
=73	=73	=73	=73	=73	=73	=73	=73	=73
8e 8g	Se-	2r	.	1FMM	newline	voice	.	F:maj7
16e 16g	-xy	.	.	.	.	.	.	.
[16d [16f	eyes	.	.	.	.	.	.	.
8d] 8f]	_	.	.	.	.	.	.	.
8r	.	.	.	.	.	.	.	.
4r	.	8e	Se-	.	.	.	.	.
.	.	16e	-xy	.	.	.	.	.
.	.	[16e	eyes	.	.	.	.	.
8r	.	4e_ [4g	_	.	.	.	.	.
16c	Get-	.	.	.	.	.	.	.
16d	-tin'	.	.	.	.	.	.	.
=74	=74	=74	=74	=74	=74	=74	=74	=74
8e	down	16e_ [16a	_	1FMM	.	voice	.	F:maj7
.	.	8.e_ 8.a_ [8.cc	_	.	.	.	.	.
16e	with	.	.	.	.	.	.	.
16e	you	.	.	.	.	.	.	.
16r	.	4e_ 4a_ 4cc_	_	.	.	.	.	.
16A	I	.	.	.	.	.	.	.
16c	wan-	.	.	.	.	.	.	.
16d	-na	.	.	.	.	.	.	.
32e	move	4e_ 4a_ 4cc_	_	.	.	.	.	.
16.A	_	.	.	.	.	.	.	.
16A	with	.	.	.	.	.	.	.
16A	y-	.	.	.	.	.	.	.
8A	-you	8e] 8a] 8cc]	_	.	.	.	.	.
.	.	16d#Q 16g]Q 16bQ	_	.	.	.	.	.
8r	.	[16e 16a 16cc	_	.	.	.	.	.
.	.	16r	.	.	.	.	.	.
=75	=75	=75	=75	=75	=75	=75	=75	=75
8B 8e	se-	1e] 1g 1b	_	1CMM	.	voice	.	C:maj7
16B 16e	-xy	.	.	.	.	.	.	.
[16B [16e	eyes	.	.	.	.	.	.	.
24B] 24e]	_	.	.	.	.	.	.	.
12A 12d	_	.	.	.	.	.	.	.
8G 8B	_	.	.	.	.	.	.	.
2r	.	.	.	.	.	.	.	.
=76	=76	=76	=76	=76	=76	=76	=76	=76
1r	.	1r	.	4.Emm	.	voice	.	E:min9
.	.	.	.	4Am	.	voice	.	A:sus4(b7)
.	.	.	.	4.AMm	.	voice	.	A:7
=77	=77	=77	=77	=77	=77	=77	=77	=77
1r	.	1r	.	1FMM	newline	voice	.	F:maj7
r;	.	r;	.	1r;	.	r	.	N.C.
*-	*-	*-	*-	*-	*-	*-	*-	*-
!!!BillboardChartDate: 1980/03/08
!!!BillboardPeak: 5
!!!BillboardWeeksOnChart: 21
!!!COC: Dr. Hook
!!!ENC: Nathaniel Condit-Schultz
!!!EST: Awating manual error checking and editing.
!!!OTL: Sexy Eyes
!!!RDF**chordsym: original McGill chord annotation + (implied pitch class set, with bass pitch in first position)
!!!RDF**harmony: **recip + pitch class of root + harmonic quality
!!!RDF**leadinstrument: original McGill primary instrumentation annotation
!!!RDF**phrase: newline = linebreak in original McGill transcription
!!!RDF**timestamp: McGill audio timestamp in seconds
!!!RDT: 2017/01/12/
!!!SampleActualRank: 48
!!!SampleID#: 0831
!!!SampleTargetRank: 48
